src/duckstation-qt/resources/icons/black/svg/checkbox-indeterminate-disabled.svg

<svg height="16" viewBox="0 0 88.888889 88.888889" width="16" xmlns="http://www.w3.org/2000/svg"><path d="m13.583205 2.4720941h62.833587a11.111111 11.111111 45 0 1 11.111111 11.1111109v62.833595a11.111111 11.111111 135 0 1 -11.111111 11.111111h-62.833587a11.111111 11.111111 45 0 1 -11.1111109-11.111111v-62.833595a11.111111 11.111111 135 0 1 11.1111109-11.1111109z" fill="#d4d4d4" height="85.055817" transform="matrix(.97974888 0 0 .97974879 .355746 .355747)" width="85.055809" x="2.472094" y="2.472094"/><path d="m16.179778 35.111759h56.780262a5.5555556 5.5555556 45 0 1 5.555555 5.555556v.549621a5.5555556 5.5555556 135 0 1 -5.555555 5.555555h-56.780262a5.5555556 5.5555556 45 0 1 -5.555555-5.555555v-.549621a5.5555556 5.5555556 135 0 1 5.555555-5.555556z" fill="#505050" height="11.660732" stroke-width="4.57222" transform="translate(-.125465 3.502319)" width="67.891373" x="10.624223" y="35.111759"/></svg>

<?xml version="1.0" encoding="UTF-8" standalone="no"?>
<svg
   width="16"
   height="16"
   viewBox="0 0 88.888889 88.888889"
   xmlns="http://www.w3.org/2000/svg">
<path
   style="fill:#d4d4d4;fill-opacity:1;stroke:none;stroke-width:4.94381;stroke-linecap:butt;stroke-linejoin:miter;stroke-miterlimit:9.6;stroke-dasharray:none;stroke-opacity:1"
   width="85.055809"
   height="85.055817"
   x="2.4720941"
   y="2.4720941"
   d="M 13.583205,2.4720941 H 76.416792 A 11.111111,11.111111 45 0 1 87.527903,13.583205 V 76.4168 A 11.111111,11.111111 135 0 1 76.416792,87.527911 H 13.583205 A 11.111111,11.111111 45 0 1 2.4720941,76.4168 V 13.583205 A 11.111111,11.111111 135 0 1 13.583205,2.4720941 Z"
   transform="matrix(0.97974888,0,0,0.97974879,0.3557464,0.35574662)" /><path
   style="fill:#505050;fill-opacity:1;stroke-width:4.57222"
   width="67.891373"
   height="11.660732"
   x="10.624223"
   y="35.111759"
   d="M 16.179778,35.111759 H 72.96004 a 5.5555556,5.5555556 45 0 1 5.555555,5.555556 v 0.549621 A 5.5555556,5.5555556 135 0 1 72.96004,46.772491 H 16.179778 a 5.5555556,5.5555556 45 0 1 -5.555555,-5.555555 v -0.549621 a 5.5555556,5.5555556 135 0 1 5.555555,-5.555556 z"
   transform="translate(-0.1254646,3.5023192)" /></svg>
